assets/img/braze_icons/trophy-02.svg

<svg fill="none" height="24" viewBox="0 0 24 24" width="24" xmlns="http://www.w3.org/2000/svg"><g fill="#801ed7"><path clip-rule="evenodd" d="m7.02608 2c-.23354-.00002-.46102-.00005-.65408.01457-.2116.01602-.46185.05373-.71723.17282-.42615.19872-.76866.54123-.96738.96738-.11909.25538-.1568.50563-.17282.71723-.01462.19305-.01459.42053-.01457.65407v5.97393c0 3.8031 2.83064 6.945 6.5 7.4339v2.0661h-4c-.55228 0-1 .4477-1 1s.44772 1 1 1h10c.5523 0 1-.4477 1-1s-.4477-1-1-1h-4v-2.0661c3.6694-.4889 6.5-3.6308 6.5-7.4339v-5.97392c0-.23351.0001-.46105-.0146-.65408-.016-.2116-.0537-.46185-.1728-.71723-.1987-.42615-.5412-.76866-.9674-.96738-.2553-.11909-.5056-.1568-.7172-.17282-.193-.01462-.4205-.01459-.6541-.01457z" fill-rule="evenodd"/><path d="m2 4c.55228 0 1 .44772 1 1v5c0 .5523-.44772 1-1 1s-1-.4477-1-1v-5c0-.55228.44772-1 1-1z"/><path d="m22 4c.5523 0 1 .44772 1 1v5c0 .5523-.4477 1-1 1s-1-.4477-1-1v-5c0-.55228.4477-1 1-1z"/></g></svg>

<svg width="24" height="24" viewBox="0 0 24 24" fill="none" xmlns="http://www.w3.org/2000/svg">
<path fill-rule="evenodd" clip-rule="evenodd" d="M7.02608 2C6.79254 1.99998 6.56506 1.99995 6.372 2.01457C6.1604 2.03059 5.91015 2.0683 5.65477 2.18739C5.22862 2.38611 4.88611 2.72862 4.68739 3.15477C4.5683 3.41015 4.53059 3.6604 4.51457 3.872C4.49995 4.06505 4.49998 4.29253 4.5 4.52607L4.5 10.5C4.5 14.3031 7.33064 17.445 11 17.9339V20H7C6.44772 20 6 20.4477 6 21C6 21.5523 6.44772 22 7 22H17C17.5523 22 18 21.5523 18 21C18 20.4477 17.5523 20 17 20H13V17.9339C16.6694 17.445 19.5 14.3031 19.5 10.5L19.5 4.52608C19.5 4.29257 19.5001 4.06503 19.4854 3.872C19.4694 3.6604 19.4317 3.41015 19.3126 3.15477C19.1139 2.72862 18.7714 2.38611 18.3452 2.18739C18.0899 2.0683 17.8396 2.03059 17.628 2.01457C17.435 1.99995 17.2075 1.99998 16.9739 2H7.02608Z" fill="#801ED7"/>
<path d="M2 4C2.55228 4 3 4.44772 3 5V10C3 10.5523 2.55228 11 2 11C1.44772 11 1 10.5523 1 10V5C1 4.44772 1.44772 4 2 4Z" fill="#801ED7"/>
<path d="M22 4C22.5523 4 23 4.44772 23 5V10C23 10.5523 22.5523 11 22 11C21.4477 11 21 10.5523 21 10V5C21 4.44772 21.4477 4 22 4Z" fill="#801ED7"/>
</svg>
